X:62
T:Rondeau in D Major
C:Couperin, F.
M:2/4
L:1/16
Q:1/4=108
K:D
|:DEFG ABCD|EFGA BcBA|GFED CDEF|D8|
ABCD EFG A|BcBA GFEF|GFED CDEF|D8:|

